img/master-flower-1.svg

<svg width="262" height="654" viewBox="0 0 262 654" fill="none" xmlns="http://www.w3.org/2000/svg">
<path d="M105.507 122.068L108.496 118.999L110.442 121.947L112.087 121.907L115.677 124.816L121.814 136.649L129.449 155.185L135.364 173.015L140.982 196.094L145.412 240.171L144.968 252.164L144.829 253.853C150.573 237.707 157.516 222.656 166.867 210.134C171.667 203.705 182.75 196.074 191.73 190.312C204.788 181.933 217.804 175.678 217.804 175.678C215.07 185.039 214.042 194.483 213.03 203.777C211.851 214.608 210.695 225.235 206.885 235.283C199.808 253.952 192.369 261.333 183.154 265.687C175.384 269.359 170.233 271.492 165.72 273.36L165.718 273.361L165.716 273.362C159.571 275.906 154.608 277.961 145.822 282.747C144.169 283.647 141.908 286.402 139.727 289.493L137.507 291.499L130.174 312.108L130.115 312.514L120.255 359.366L104.768 419.805L107.419 415.525L118.817 399.937L133.704 385.466L146.73 376.811L165.945 368.854L189.068 364.711L225.358 363.498L248.109 360.518L261.183 355.725L260.857 360.75L250.251 377.872L235.411 396.205L219.733 409.14L208.986 414.678L194.005 421.426L177.07 426.266L150.876 431.991L129.335 439.204L117.053 445.533L100.584 456.933L89.1394 468.659L67.0446 525.702L52.0198 560.644L32.064 602.985L12.8054 639.137L4.47854 653.142L0.197906 650.491L5.82633 636.905L20.6969 606.238L22 603.5L23.3064 600.857L24.6659 598.054L29 589.5L34.5 577L41.598 561.157L59.5997 516.909L81.2754 457.168L88.3454 435.067L91.3422 424.475C91.7154 415.868 92.0371 399.156 89.3655 392.519C89.1242 391.92 88.885 391.323 88.6464 390.728C82.69 375.874 77.172 362.112 51.743 334.105C38.4638 319.479 28.5375 294.152 30.3081 262.196C30.9262 251.041 32.8741 242.182 34.7179 233.796C38.156 218.16 41.2324 204.168 34.6521 180C34.6521 180 53.3265 200.798 70.4179 224.509C82.1714 240.814 96.2727 261.641 99.941 274.886C109.908 310.873 107.553 349.069 101.852 387.33L107.973 365.695L110.531 353.691L120.599 312.246L120.507 312.243L122.007 305.999L126.514 290.058L130.17 269L131.658 250.99L131.726 235.262L128.121 199.402L124.899 183.754L119.582 163.663L113.667 145.834L107.005 128.771L105.507 122.068Z" fill="#7BB361"/>
<path d="M59.8057 31.4368L48.4751 30.7281L46.829 37.9201L45.6161 43.8033L45.0256 50.6296L46.1192 60.1831L49.7043 70.5287L48.3847 70.9859C48.3847 70.9859 42.259 72.826 38.4881 74.4154C32.6931 76.8579 24.316 82.1407 24.316 82.1407C24.316 82.1407 32.8801 85.0371 37.2993 88.8984C42.8412 93.7406 47.6677 105.17 47.6677 105.17L51.548 112.103L59.0917 121.077L64.4392 125.845L74.5135 131.459L83.5635 134.117L91.1855 134.786L102.106 134.313L110.28 132.308L114.642 129.969L117.941 128.825L126.557 121.701L132.131 116.459L135.065 112.131L140.53 104.444L144.567 94.7675L147.284 85.5488L148.022 77.016L147.441 68.9404C147.441 68.9404 146.543 59.3355 147.377 53.4016C148.133 48.0244 151.079 40.1998 151.079 40.1998C151.079 40.1998 139.428 40.6899 132.688 43.4276C130.4 44.3571 127.006 46.2243 127.006 46.2243L122.791 46.8571L122.683 44.4115L118.33 31.8491L116.389 28.3829L112.618 23.896L107 17.0689L100.597 12.6661L92.2526 18.8686L88.1368 25.7577L83.5876 33.9558L83.5485 38.1079L82.2289 38.5652L81.9337 41.9783L80.6141 42.4356L77.0984 38.6877L75.7788 39.1449L75.2667 37.667L67.9399 33.5843L59.8057 31.4368Z" fill="#EEC760"/>
<path d="M84.3468 51.0745L91.4567 50.2661L97.7592 51.3929L106.662 55.7573L107.026 58.9418L105.008 63.7798L102.694 72.031L101.917 84.7159L103.227 99.1605L104.104 103.823L102.784 104.28L95.7919 92.6323L87.9921 82.9195L80.5569 76.3913L79.1289 74.403L77.8093 74.8603L71.1423 70.549L70.7778 67.3645L72.1365 62.7551L76.538 56.2636L79.9845 53.4139L84.3468 51.0745Z" fill="#FCFCFC"/>
</svg>

<svg width="262" height="654" fill="none" xmlns="http://www.w3.org/2000/svg"><path d="M105.507 122.068l2.989-3.069 1.946 2.948 1.645-.04 3.59 2.909 6.137 11.833 7.635 18.536 5.915 17.83 5.618 23.079 4.43 44.077-.444 11.993-.139 1.689c5.744-16.146 12.687-31.197 22.038-43.719 4.8-6.429 15.883-14.06 24.863-19.822 13.058-8.379 26.074-14.634 26.074-14.634-2.734 9.361-3.762 18.805-4.774 28.099-1.179 10.831-2.335 21.458-6.145 31.506-7.077 18.669-14.516 26.05-23.731 30.404-7.77 3.672-12.921 5.805-17.434 7.673l-.002.001-.002.001c-6.145 2.544-11.108 4.599-19.894 9.385-1.653.9-3.914 3.655-6.095 6.746l-2.22 2.006-7.333 20.609-.059.406-9.86 46.852-15.487 60.439 2.651-4.28 11.398-15.588 14.887-14.471 13.026-8.655 19.215-7.957 23.123-4.143 36.29-1.213 22.751-2.98 13.074-4.793-.326 5.025-10.606 17.122-14.84 18.333-15.678 12.935-10.747 5.538-14.981 6.748-16.935 4.84-26.194 5.725-21.541 7.213-12.282 6.329-16.469 11.4-11.445 11.726-22.094 57.043-15.025 34.942-19.956 42.341-19.259 36.152-8.326 14.005-4.281-2.651 5.628-13.586 14.87-30.667L22 603.5l1.306-2.643 1.36-2.803L29 589.5l5.5-12.5 7.098-15.843L59.6 516.909l21.675-59.741 7.07-22.101 2.997-10.592c.373-8.607.695-25.319-1.977-31.956l-.719-1.791c-5.956-14.854-11.474-28.616-36.903-56.623-13.28-14.626-23.206-39.953-21.435-71.909.618-11.155 2.566-20.014 4.41-28.4 3.438-15.636 6.514-29.628-.066-53.796 0 0 18.675 20.798 35.766 44.509 11.753 16.305 25.855 37.132 29.523 50.377 9.967 35.987 7.612 74.183 1.911 112.444l6.121-21.635 2.558-12.004 10.068-41.445-.092-.003 1.5-6.244 4.507-15.941L130.17 269l1.488-18.01.068-15.728-3.605-35.86-3.222-15.648-5.317-20.091-5.915-17.829-6.662-17.063-1.498-6.703z" fill="#7BB361"/><path d="M59.806 31.437l-11.33-.709-1.647 7.192-1.213 5.883-.59 6.827 1.093 9.553 3.585 10.346-1.32.457s-6.125 1.84-9.896 3.43c-5.795 2.442-14.172 7.725-14.172 7.725s8.564 2.896 12.983 6.757c5.542 4.843 10.369 16.272 10.369 16.272l3.88 6.933 7.544 8.974 5.347 4.768 10.075 5.614 9.05 2.658 7.622.669 10.92-.473 8.174-2.005 4.362-2.339 3.299-1.144 8.616-7.124 5.574-5.242 2.934-4.328 5.465-7.687 4.037-9.677 2.717-9.218.738-8.533-.581-8.076s-.898-9.604-.064-15.538c.756-5.378 3.702-13.202 3.702-13.202s-11.651.49-18.391 3.228c-2.288.93-5.682 2.796-5.682 2.796l-4.215.633-.108-2.446-4.353-12.562-1.941-3.466-3.771-4.487L107 17.069l-6.403-4.403-8.344 6.203-4.116 6.889-4.55 8.198-.038 4.152-1.32.457-.295 3.413-1.32.458-3.516-3.748-1.32.457-.511-1.478-7.327-4.083-8.134-2.147z" fill="#EEC760"/><path d="M84.347 51.075l7.11-.809 6.302 1.127 8.903 4.364.364 3.185-2.018 4.838-2.314 8.251-.777 12.685 1.31 14.445.877 4.662-1.32.457-6.992-11.648-7.8-9.713-7.435-6.528-1.428-1.988-1.32.457-6.667-4.311-.364-3.184 1.358-4.61 4.402-6.491 3.447-2.85 4.362-2.34z" fill="#FCFCFC"/></svg>
